remix/Development/code-box-line.svg

<svg viewBox="0 0 24 24" fill="currentColor" xmlns="http://www.w3.org/2000/svg"><path d="M3 3H21C21.5523 3 22 3.44772 22 4V20C22 20.5523 21.5523 21 21 21H3C2.44772 21 2 20.5523 2 20V4C2 3.44772 2.44772 3 3 3ZM4 5V19H20V5H4ZM20 12L16.4645 15.5355L15.0503 14.1213L17.1716 12L15.0503 9.87868L16.4645 8.46447L20 12ZM6.82843 12L8.94975 14.1213L7.53553 15.5355L4 12L7.53553 8.46447L8.94975 9.87868L6.82843 12ZM11.2443 17H9.11597L12.7557 7H14.884L11.2443 17Z"/></svg>

<svg viewBox="0 0 24 24" xmlns="http://www.w3.org/2000/svg"><path fill="none" d="M0 0h24v24H0Z"/><path d="M3 3h18v0c.55 0 1 .44 1 1v16 0c0 .55-.45 1-1 1H3v0c-.56 0-1-.45-1-1V4v0c0-.56.44-1 1-1Zm1 2v14h16V5H4Zm16 7l-3.54 3.53 -1.42-1.42 2.12-2.13 -2.122-2.13 1.41-1.42 3.53 3.53ZM6.82 12l2.122 2.12 -1.42 1.41 -3.54-3.54 3.53-3.54 1.41 1.41 -2.13 2.12Zm4.416 5H9.116l3.64-10h2.128l-3.64 10Z"/></svg>
